src/pos-icons/text-box-search.svg

<svg height="24" viewBox="0 0 24 24" width="24" xmlns="http://www.w3.org/2000/svg"><path d="m15.5 12c2.5 0 4.5 2 4.5 4.5 0 .88-.25 1.71-.69 2.4l3.08 3.1-1.39 1.39-3.12-3.07c-.69.43-1.51.68-2.38.68-2.5 0-4.5-2-4.5-4.5s2-4.5 4.5-4.5m0 2a2.5 2.5 0 0 0 -2.5 2.5 2.5 2.5 0 0 0 2.5 2.5 2.5 2.5 0 0 0 2.5-2.5 2.5 2.5 0 0 0 -2.5-2.5m-8.5 1v2h2c.14 1.55.8 2.94 1.81 4h-5.81c-1.11 0-2-.9-2-2v-14c0-1.11.89-2 2-2h14a2 2 0 0 1 2 2v8.03c-1.15-1.82-3.18-3.03-5.5-3.03-1.27 0-2.46.37-3.46 1h-5.04v2h3c-.36.6-.66 1.28-.83 2zm10-6v-2h-10v2z"/></svg>

<?xml version="1.0" encoding="UTF-8"?><!DOCTYPE svg PUBLIC "-//W3C//DTD SVG 1.1//EN" "http://www.w3.org/Graphics/SVG/1.1/DTD/svg11.dtd"><svg xmlns="http://www.w3.org/2000/svg" xmlns:xlink="http://www.w3.org/1999/xlink" version="1.1" id="mdi-text-box-search" width="24" height="24" viewBox="0 0 24 24"><path d="M15.5,12C18,12 20,14 20,16.5C20,17.38 19.75,18.21 19.31,18.9L22.39,22L21,23.39L17.88,20.32C17.19,20.75 16.37,21 15.5,21C13,21 11,19 11,16.5C11,14 13,12 15.5,12M15.5,14A2.5,2.5 0 0,0 13,16.5A2.5,2.5 0 0,0 15.5,19A2.5,2.5 0 0,0 18,16.5A2.5,2.5 0 0,0 15.5,14M7,15V17H9C9.14,18.55 9.8,19.94 10.81,21H5C3.89,21 3,20.1 3,19V5C3,3.89 3.89,3 5,3H19A2,2 0 0,1 21,5V13.03C19.85,11.21 17.82,10 15.5,10C14.23,10 13.04,10.37 12.04,11H7V13H10C9.64,13.6 9.34,14.28 9.17,15H7M17,9V7H7V9H17Z" /></svg>
